svg/aws-api-gateway.svg

<?xml version="1.0" encoding="UTF-8"?>
<svg xmlns="http://www.w3.org/2000/svg" xmlns:xlink="http://www.w3.org/1999/xlink" width="32" height="32" viewBox="0 0 32 32">
<path fill-rule="nonzero" fill="rgb(90.588236%, 8.235294%, 48.235294%)" fill-opacity="1" d="M 0.203125 0.203125 L 31.796875 0.203125 L 31.796875 31.796875 L 0.203125 31.796875 Z M 0.203125 0.203125 "/>
<path fill-rule="nonzero" fill="rgb(100%, 100%, 100%)" fill-opacity="1" d="M 13.324219 23.058594 L 14.648438 23.058594 L 14.648438 22.152344 L 13.324219 22.152344 Z M 15.550781 23.058594 L 16.902344 23.058594 L 16.902344 22.152344 L 15.550781 22.152344 Z M 10.140625 4.570312 L 4.273438 7.480469 L 4.273438 25.566406 L 10.140625 27.550781 Z M 11.039062 10.324219 L 11.039062 22.152344 L 12.390625 22.152344 L 12.390625 23.058594 L 11.039062 23.058594 L 11.039062 28.183594 C 11.039062 28.332031 10.96875 28.46875 10.851562 28.554688 C 10.734375 28.636719 10.582031 28.660156 10.445312 28.613281 L 3.683594 26.328125 C 3.496094 26.265625 3.371094 26.089844 3.375 25.894531 L 3.375 7.199219 C 3.375 7.023438 3.472656 6.867188 3.625 6.789062 L 10.390625 3.429688 C 10.53125 3.363281 10.695312 3.371094 10.828125 3.457031 C 10.957031 3.539062 11.039062 3.683594 11.039062 3.839844 L 11.039062 9.417969 L 12.390625 9.417969 L 12.390625 10.324219 Z M 17.800781 23.058594 L 19.15625 23.058594 L 19.15625 22.152344 L 17.800781 22.152344 Z M 17.835938 10.324219 L 19.15625 10.324219 L 19.15625 9.417969 L 17.835938 9.417969 Z M 15.578125 10.324219 L 16.902344 10.324219 L 16.902344 9.417969 L 15.578125 9.417969 Z M 13.324219 10.324219 L 14.648438 10.324219 L 14.648438 9.417969 L 13.324219 9.417969 Z M 27.726562 7.480469 L 21.859375 4.570312 L 21.859375 27.550781 L 27.726562 25.566406 Z M 28.625 25.894531 C 28.625 26.089844 28.5 26.265625 28.316406 26.328125 L 21.554688 28.613281 C 21.417969 28.660156 21.265625 28.636719 21.148438 28.554688 C 21.03125 28.46875 20.960938 28.332031 20.960938 28.183594 L 20.960938 23.058594 L 20.085938 23.058594 L 20.085938 22.152344 L 20.960938 22.152344 L 20.960938 10.324219 L 20.085938 10.324219 L 20.085938 9.417969 L 20.960938 9.417969 L 20.960938 3.839844 C 20.960938 3.683594 21.042969 3.535156 21.171875 3.457031 C 21.300781 3.371094 21.46875 3.363281 21.609375 3.429688 L 28.375 6.789062 C 28.527344 6.867188 28.625 7.023438 28.625 7.199219 Z M 17.324219 13.21875 L 16.480469 12.894531 L 14.226562 18.804688 L 15.066406 19.132812 Z M 20.378906 16.105469 C 20.554688 15.925781 20.554688 15.640625 20.378906 15.460938 L 18.570312 13.640625 L 17.9375 14.285156 L 19.421875 15.785156 L 17.9375 17.28125 L 18.570312 17.925781 Z M 13.429688 17.925781 L 11.621094 16.105469 C 11.445312 15.925781 11.445312 15.640625 11.621094 15.460938 L 13.429688 13.640625 L 14.0625 14.285156 L 12.578125 15.785156 L 14.0625 17.28125 Z M 13.429688 17.925781 "/>
</svg>

<svg role="img" viewBox="0 0 32 32" xmlns="http://www.w3.org/2000/svg"><path d="M.203.203h31.594v31.594H.203Zm0 0" fill="rgb(90.588236%, 8.235294%, 48.235294%)"/><path d="M13.324 23.059h1.324v-.907h-1.324Zm2.227 0h1.351v-.907h-1.351ZM10.14 4.57 4.273 7.48v18.086l5.868 1.985Zm.898 5.754v11.828h1.352v.907h-1.352v5.125c0 .148-.07.285-.187.37a.46.46 0 0 1-.407.06l-6.761-2.286a.45.45 0 0 1-.309-.433V7.199c0-.176.098-.332.25-.41l6.766-3.36a.456.456 0 0 1 .648.41v5.579h1.352v.906ZM17.8 23.059h1.355v-.907H17.8Zm.035-12.735h1.32v-.906h-1.32Zm-2.258 0h1.324v-.906h-1.324Zm-2.254 0h1.324v-.906h-1.324ZM27.727 7.48l-5.868-2.91v22.98l5.868-1.984Zm.898 18.415a.46.46 0 0 1-.309.433l-6.761 2.285a.46.46 0 0 1-.407-.058.46.46 0 0 1-.187-.371v-5.125h-.875v-.907h.875V10.324h-.875v-.906h.875V3.84c0-.156.082-.305.21-.383a.45.45 0 0 1 .438-.027l6.766 3.36c.152.077.25.233.25.41Zm-11.3-12.676-.845-.324-2.253 5.91.84.328Zm3.054 2.886a.46.46 0 0 0 0-.644l-1.809-1.82-.633.644 1.485 1.5-1.485 1.496.633.645Zm-6.95 1.82-1.808-1.82a.46.46 0 0 1 0-.644l1.809-1.82.633.644-1.485 1.5 1.485 1.496Zm0 0" fill="rgb(100%, 100%, 100%)"/></svg>
